X:1
T:Russian Dance
%%score { 1 | 2 }
L:1/8
M:4/4
K:G
V:1 treble nm="Piano" snm="Pno."
V:2 bass 
V:1
 !>!.[Bg]2 gf .g2 .g2 | .e2 .d2 .c2 .e2 | !>!.[Bd]2 d^c .d2 d2 | .B2 .A2 .G2 Bd | .A2 Ad .G2 Gd | %5
 .F2 Fd .A2 Ad | .B2 Bd .G2 Gd | .A2 .G2 .A2 .d2 | !>!.[Bg]2 gf .g2 .g2 | .e2 .d2 .c2 .e2 | %10
 !>!.[Bd]2 d^c .d2 d2 | .B2 .A2 .G2 Bd | .A2 Ad .G2 Gd | .F2 Fd .A2 Ad | .B2 Bd .G2 Gd | %15
 .A2 .E2 .A2 Bd | .B2 Bd .G2 Gd | .A2 Ad .G2 Gd | .A2 Ad .G2 Gd | .A2 .d2 .[Bg]2 z2 |] %20
V:2
 !>!.[G,,D,]2 z2 z4 | .C2 .D2 .E2 z2 | !>!.[G,,D,]2 z2 z4 | .^C2 .=C2 .B,2 z2 | C4 B,4 | A,4 C4 | %6
 D4 B,2 z2 | .C2 .B,2 .C2 z2 | !>!.[G,,D,]2 z2 z4 | .C2 .D2 .E2 z2 | !>!.[G,,D,]2 z2 z4 | %11
 .^C2 .=C2 .B,2 z2 | C4 B,4 | A,4 C4 | D4 B,4 | .B,2 .C2 .B,2 z2 | D4 B,4 | C4 B,4 | C4 B,4 | %19
 C2 .D,2 .[G,,D,]2 z2 |] %20

